dist/assets/icons/search.svg

<svg width="36" height="36" fill="none" xmlns="http://www.w3.org/2000/svg"><g clip-path="url(#a)"><path d="M23.25 21h-1.185l-.42-.405A9.707 9.707 0 0 0 24 14.25a9.75 9.75 0 0 0-9.75-9.75 9.75 9.75 0 0 0-9.75 9.75A9.75 9.75 0 0 0 14.25 24a9.707 9.707 0 0 0 6.345-2.355l.405.42v1.185l7.5 7.485 2.235-2.235L23.25 21Zm-9 0a6.741 6.741 0 0 1-6.75-6.75 6.741 6.741 0 0 1 6.75-6.75A6.741 6.741 0 0 1 21 14.25 6.741 6.741 0 0 1 14.25 21Z" fill="#fff"/></g><defs><clipPath id="a"><path fill="#fff" d="M0 0h36v36H0z"/></clipPath></defs></svg>

<svg width="36" height="36" viewBox="0 0 36 36" fill="none" xmlns="http://www.w3.org/2000/svg">
<g clip-path="url(#clip0_1601_7)">
<path d="M23.25 21H22.065L21.645 20.595C23.115 18.885 24 16.665 24 14.25C24 8.865 19.635 4.5 14.25 4.5C8.865 4.5 4.5 8.865 4.5 14.25C4.5 19.635 8.865 24 14.25 24C16.665 24 18.885 23.115 20.595 21.645L21 22.065V23.25L28.5 30.735L30.735 28.5L23.25 21V21ZM14.25 21C10.515 21 7.5 17.985 7.5 14.25C7.5 10.515 10.515 7.5 14.25 7.5C17.985 7.5 21 10.515 21 14.25C21 17.985 17.985 21 14.25 21Z" fill="white"/>
</g>
<defs>
<clipPath id="clip0_1601_7">
<rect width="36" height="36" fill="white"/>
</clipPath>
</defs>
</svg>
